files/venmo.svg

<svg clip-rule="evenodd" fill-rule="evenodd" stroke-linejoin="round" stroke-miterlimit="2" viewBox="0 0 560 400" xmlns="http://www.w3.org/2000/svg"><g fill="#3d95ce" fill-rule="nonzero" transform="matrix(.728035 0 0 .728035 -8.30239 -22.666)"><path d="m202.376 250.999c3.895 6.433 5.651 13.059 5.651 21.429 0 26.696-22.789 61.376-41.285 85.728h-42.246l-16.943-101.312 36.991-3.512 8.958 72.09c8.37-13.636 18.699-35.065 18.699-49.675 0-7.997-1.37-13.444-3.511-17.929z"/><path d="m250.318 295.611c6.807 0 23.944-3.114 23.944-12.854 0-4.677-3.307-7.01-7.204-7.01-6.818 0-15.765 8.176-16.74 19.864zm-.78 19.29c0 11.893 6.613 16.559 15.38 16.559 9.547 0 18.688-2.333 30.569-8.371l-4.475 30.388c-8.371 4.09-21.417 6.819-34.08 6.819-32.121 0-43.617-19.48-43.617-43.833 0-31.564 18.7-65.079 57.253-65.079 21.226 0 33.095 11.892 33.095 28.451.002 26.695-34.26 34.873-54.125 35.066z"/><path d="m410.414 274.773c0 3.896-.591 9.547-1.179 13.24l-11.1 70.142h-36.019l10.125-64.298c.192-1.744.782-5.255.782-7.203 0-4.677-2.922-5.844-6.435-5.844-4.666 0-9.343 2.141-12.458 3.704l-11.484 73.642h-36.222l16.548-105.015h31.35l.397 8.382c7.396-4.87 17.135-10.137 30.953-10.137 18.307-.002 24.742 9.353 24.742 23.387z"/><path d="m517.344 262.88c10.316-7.396 20.057-11.496 33.488-11.496 18.495 0 24.928 9.355 24.928 23.389 0 3.896-.589 9.547-1.177 13.24l-11.087 70.142h-36.029l10.318-65.657c.19-1.755.589-3.896.589-5.254 0-5.266-2.923-6.434-6.435-6.434-4.474 0-8.946 1.948-12.266 3.704l-11.482 73.642h-36.02l10.318-65.657c.19-1.755.577-3.896.577-5.254 0-5.266-2.924-6.434-6.424-6.434-4.676 0-9.343 2.141-12.458 3.704l-11.493 73.642h-36.21l16.546-105.015h30.967l.973 8.767c7.204-5.254 16.935-10.521 29.98-10.521 11.295-.004 18.69 4.867 22.397 11.492z"/><path d="m647.444 293.472c0-8.573-2.144-14.418-8.564-14.418-14.215 0-17.134 25.131-17.134 37.987 0 9.753 2.729 15.789 9.147 15.789 13.436 0 16.551-26.503 16.551-39.358zm-62.303 22.017c0-33.117 17.52-64.105 57.83-64.105 30.374 0 41.477 17.929 41.477 42.676 0 32.733-17.331 66.631-58.613 66.631-30.57 0-40.694-20.07-40.694-45.202z"/></g></svg>

<?xml version="1.0" encoding="UTF-8" standalone="no"?>
<!DOCTYPE svg PUBLIC "-//W3C//DTD SVG 1.1//EN" "http://www.w3.org/Graphics/SVG/1.1/DTD/svg11.dtd">
<svg width="100%" height="100%" viewBox="0 0 560 400" version="1.1" xmlns="http://www.w3.org/2000/svg" xmlns:xlink="http://www.w3.org/1999/xlink" xml:space="preserve" xmlns:serif="http://www.serif.com/" style="fill-rule:evenodd;clip-rule:evenodd;stroke-linejoin:round;stroke-miterlimit:2;">
    <g transform="matrix(0.728035,0,0,0.728035,-8.30239,-22.666)">
        <path id="path5" d="M202.376,250.999C206.271,257.432 208.027,264.058 208.027,272.428C208.027,299.124 185.238,333.804 166.742,358.156L124.496,358.156L107.553,256.844L144.544,253.332L153.502,325.422C161.872,311.786 172.201,290.357 172.201,275.747C172.201,267.75 170.831,262.303 168.69,257.818L202.376,250.999Z" style="fill:rgb(61,149,206);fill-rule:nonzero;"/>
        <path id="path7" d="M250.318,295.611C257.125,295.611 274.262,292.497 274.262,282.757C274.262,278.08 270.955,275.747 267.058,275.747C260.24,275.747 251.293,283.923 250.318,295.611ZM249.538,314.901C249.538,326.794 256.151,331.46 264.918,331.46C274.465,331.46 283.606,329.127 295.487,323.089L291.012,353.477C282.641,357.567 269.595,360.296 256.932,360.296C224.811,360.296 213.315,340.816 213.315,316.463C213.315,284.899 232.015,251.384 270.568,251.384C291.794,251.384 303.663,263.276 303.663,279.835C303.665,306.53 269.403,314.708 249.538,314.901Z" style="fill:rgb(61,149,206);fill-rule:nonzero;"/>
        <path id="path9" d="M410.414,274.773C410.414,278.669 409.823,284.32 409.235,288.013L398.135,358.155L362.116,358.155L372.241,293.857C372.433,292.113 373.023,288.602 373.023,286.654C373.023,281.977 370.101,280.81 366.588,280.81C361.922,280.81 357.245,282.951 354.13,284.514L342.646,358.156L306.424,358.156L322.972,253.141L354.322,253.141L354.719,261.523C362.115,256.653 371.854,251.386 385.672,251.386C403.979,251.384 410.414,260.739 410.414,274.773Z" style="fill:rgb(61,149,206);fill-rule:nonzero;"/>
        <path id="path11" d="M517.344,262.88C527.66,255.484 537.401,251.384 550.832,251.384C569.327,251.384 575.76,260.739 575.76,274.773C575.76,278.669 575.171,284.32 574.583,288.013L563.496,358.155L527.467,358.155L537.785,292.498C537.975,290.743 538.374,288.602 538.374,287.244C538.374,281.978 535.451,280.81 531.939,280.81C527.465,280.81 522.993,282.758 519.673,284.514L508.191,358.156L472.171,358.156L482.489,292.499C482.679,290.744 483.066,288.603 483.066,287.245C483.066,281.979 480.142,280.811 476.642,280.811C471.966,280.811 467.299,282.952 464.184,284.515L452.691,358.157L416.481,358.157L433.027,253.142L463.994,253.142L464.967,261.909C472.171,256.655 481.902,251.388 494.947,251.388C506.242,251.384 513.637,256.255 517.344,262.88Z" style="fill:rgb(61,149,206);fill-rule:nonzero;"/>
        <path id="path13" d="M647.444,293.472C647.444,284.899 645.3,279.054 638.88,279.054C624.665,279.054 621.746,304.185 621.746,317.041C621.746,326.794 624.475,332.83 630.893,332.83C644.329,332.83 647.444,306.327 647.444,293.472ZM585.141,315.489C585.141,282.372 602.661,251.384 642.971,251.384C673.345,251.384 684.448,269.313 684.448,294.06C684.448,326.793 667.117,360.691 625.835,360.691C595.265,360.691 585.141,340.621 585.141,315.489Z" style="fill:rgb(61,149,206);fill-rule:nonzero;"/>
    </g>
</svg>
